icons/production/symfony.svg

<?xml version="1.0" encoding="UTF-8" standalone="no"?>
<svg width="24px" height="24px" viewBox="0 0 24 24" version="1.1" xmlns="http://www.w3.org/2000/svg">
<!--Generator: Sketch 3.8.3 (29802) - http://www.bohemiancoding.com/sketch-->
    <title>
        symfony
    </title>
    <desc>
        Created with Sketch.
    </desc>
    <g id="Page-1" stroke="none" stroke-width="1" fill="none" fill-rule="evenodd">
        <path d="M22,11.9991164 C22,17.522665 17.522665,22 12,22 C6.47733498,22 2,17.522665 2,11.9991164 C2,6.47645136 6.47733498,2 12,2 C17.522665,2 22,6.47645136 22,11.9991164 L22,11.9991164 Z M16.3721834,5.69886012 C15.3560131,5.73420518 14.4697358,6.29442432 13.8096669,7.06848105 C13.0780242,7.91764602 12.5920297,8.92498012 12.2421136,9.95352125 C11.6156225,9.44013431 11.1322789,8.77564726 10.126712,8.48493417 C9.34912079,8.26137669 8.53353362,8.35327384 7.78245118,8.91260935 C7.42634974,9.1785809 7.18158523,9.57974728 7.06583017,9.95705576 C6.76362994,10.9378811 7.38216842,11.8109039 7.66404524,12.1245913 L8.27816559,12.7820094 C8.40452417,12.9110188 8.70937528,13.2476805 8.56092604,13.7310241 C8.40010604,14.2567818 7.7665459,14.5960944 7.11796412,14.3963948 C6.82813466,14.3062649 6.411063,14.0906601 6.5047274,13.7875762 C6.54272334,13.6629849 6.6319696,13.5693205 6.68056906,13.4624017 C6.72386675,13.3696209 6.74507378,13.3006981 6.75832818,13.2600513 C6.87673412,12.8721393 6.71503049,12.3684722 6.3006097,12.2403464 C5.91358134,12.1219404 5.51771671,12.2156048 5.36396572,12.7139701 C5.18989131,13.2803747 5.46028099,14.3071485 6.91119555,14.7551471 C8.61129275,15.2773703 10.0489529,14.3513299 10.2530706,13.1451798 C10.3820801,12.3896792 10.0401166,11.8268092 9.41450915,11.1048865 L8.90554034,10.5420164 C8.5962711,10.2327472 8.49111955,9.70787311 8.81010869,9.30405585 C9.07961474,8.96297605 9.46399222,8.81806132 10.0922506,8.98860122 C11.0103384,9.23690024 11.4194575,9.8748785 12.101617,10.3882654 C11.8197402,11.3125387 11.6359459,12.2403464 11.4689405,13.0736061 L11.3664399,13.6939118 C10.8777945,16.2537775 10.5057878,17.6587435 9.53733322,18.466378 C9.34205178,18.6051074 9.06370946,18.8127596 8.6431033,18.8277812 C8.42308032,18.8348502 8.35150658,18.6828665 8.34797208,18.6165945 C8.34355395,18.4619599 8.47344703,18.3912698 8.56004241,18.3214633 C8.68905187,18.2507732 8.88521693,18.1332509 8.87196253,17.7594769 C8.85782451,17.3158964 8.49023593,16.931519 7.96006009,16.9500751 C7.56242821,16.9633295 6.95714412,17.3371035 6.98011841,18.0219139 C7.00397632,18.7288151 7.66227799,19.2589909 8.65635769,19.2245295 C9.18741716,19.2068569 10.3741274,18.9903685 11.5431651,17.6013078 C12.9039498,16.0081294 13.2839092,14.1816736 13.5710877,12.8447468 L13.8900769,11.0801449 C14.0676858,11.1013519 14.2576655,11.11549 14.464434,11.1207917 C16.1583459,11.1570204 17.0057436,10.2786958 17.018998,9.6407175 C17.0269506,9.25457277 16.7653972,8.87372979 16.3986922,8.88256605 C16.1362552,8.89051869 15.8066625,9.06459309 15.7280198,9.42776354 C15.6511443,9.78386498 16.2670319,10.105505 15.7845719,10.4174251 C15.4426085,10.6392153 14.8284881,10.7956172 13.9643015,10.668375 L14.121587,9.79977026 C14.4423434,8.15269064 14.838208,6.1265353 16.3386056,6.07793585 C16.4481753,6.07263409 16.8484581,6.08235398 16.8572943,6.3474419 C16.8599452,6.43580454 16.8387382,6.45877883 16.7344703,6.66112927 C16.6284351,6.81841477 16.5895555,6.95272599 16.5939737,7.10736061 C16.6089953,7.52796678 16.9288681,7.80454184 17.3910047,7.78775294 C18.0104268,7.76742953 18.1880357,7.16479632 18.1783158,6.85464346 C18.1526906,6.1265353 17.3848193,5.66616595 16.3704162,5.69886012 L16.3721834,5.69886012 Z" id="symfony" fill="#000"/>
    </g>
</svg>

<svg xmlns="http://www.w3.org/2000/svg" viewBox="0 0 24 24">
    <path fill-rule="evenodd" d="M22 12c0 5.523-4.477 10-10 10S2 17.523 2 12C2 6.475 6.477 2 12 2s10 4.476 10 10zm-5.628-6.301c-1.016.035-1.902.595-2.562 1.37-.732.849-1.218 1.856-1.568 2.885-.626-.514-1.11-1.178-2.115-1.47a2.59 2.59 0 0 0-2.345.429c-.356.266-.6.667-.716 1.044-.302.98.316 1.854.598 2.168l.614.657c.127.129.431.466.283.949-.16.526-.794.865-1.443.665-.29-.09-.707-.305-.613-.608.038-.125.127-.219.176-.326.043-.092.064-.161.077-.202.119-.388-.043-.892-.457-1.02-.387-.118-.783-.024-.937.474-.174.566.096 1.593 1.547 2.041 1.7.522 3.138-.404 3.342-1.61.13-.755-.213-1.318-.838-2.04l-.51-.563c-.309-.31-.414-.834-.095-1.238.27-.341.654-.486 1.282-.315.918.248 1.327.886 2.01 1.4-.282.924-.466 1.851-.633 2.685l-.103.62c-.488 2.56-.86 3.965-1.829 4.772-.195.14-.473.347-.894.362-.22.007-.291-.145-.295-.211-.004-.155.125-.226.212-.296.13-.07.325-.188.312-.562-.014-.443-.382-.827-.912-.809-.398.013-1.003.387-.98 1.072.024.707.682 1.237 1.676 1.203.531-.018 1.718-.235 2.887-1.624 1.36-1.593 1.74-3.42 2.028-4.756l.32-1.765c.177.021.367.035.573.04 1.694.037 2.542-.841 2.555-1.48.008-.385-.254-.766-.62-.757-.263.008-.592.182-.671.545-.077.356.539.678.057.99-.342.221-.957.378-1.82.25l.157-.868c.32-1.647.716-3.673 2.217-3.722.11-.005.51.004.518.27.003.088-.018.11-.123.313a.715.715 0 0 0-.14.446c.015.421.335.698.797.68.62-.02.797-.622.787-.932-.025-.728-.793-1.189-1.808-1.156h.002z"/>
</svg>
